!!!OTL: Nun laube, Lindlein, laube
!!!ARE: Europa, Mitteleuropa, Deutschland
!!!SCT: A0175
!!!YEM: Copyright 1995, estate of Helmut Schaffrath.
**kern
*ICvox
*Ivox
*M4/2
*k[f#]
*G:
{1cc
2g
2a
=1
2cc
2b
1a
=2
1g
2r}
{2dd
=3
2ee
2dd
2cc
2b
=4
1a
1g}
=5
{2r
2a
2b-
2a
=6
2g
2b-
1g
=7
1fn
2r}
{2a
=8
2cc
2a
2g
2a
=9
0g}
==
!!!AGN: Romanze, Ballade, Lied
!! In Trillers Singbuch 1555 zu einem geistlichen Text.
!!!ONB: ESAC (Essen Associative Code) Database: ALTDEU
!!!AMT: simple quadruple
!!!AIN: vox
!!!EED: Helmut Schaffrath
!!!EEV: 1.0
*-
